X: 9001
T: D Major MacKenzie
R: reel
M: 4/4
K: Dmajor
|:AddA efff|edBA GBBB|AddA efaf|afaf e2 dB|
AddA dAef|edBA GBBB|AdBA dAfa|ageA d3 B:|
|:efff afaf|edBA GBBB|AddA aaAa|aAaf e2 dB|
efff fggg edBA GBBB|AdBA dAfa|ageA d4:|

